X:148
T:  Lass rauschen!
N: A0179
O: Europa, Mitteleuropa, Deutschland
N: Schmeltzels Quodlibet 1544 No. 15.
R: Romanze, Ballade, Lied
M: 4/2
L: 1/8
K: G
G4 | G8d8 | e8d8 | c12c2B2 | A8z4
A4 | c8c8 | c8B8 | A6B2c6Bc | d8z4
d4 | G8A4A4 | B8c4c4 | A6G2F6E2 | D8z4
D4 | A6B2c6Bc | d8z4
e4 | d4d4B8 | c8A8 | G8z4
G4 | G8d8 | =f8e8 | d8c4B4 | A8
A4 | c4c4d4 | c8B8 | A4B4c4B2c2 | d4z4
d4 | G8A8 | B8c8 | A12G4 | =F4E4D4
D4 | A4B4c4B2c2 | d8e8 | d8c4B4 | c8A8 | B8
e8 | d8c4B4 | c8A8 | G8z4

